papirus/16x16/apps/chess.svg

<svg height="16" viewBox="0 0 15.999999 15.999999" width="16" xmlns="http://www.w3.org/2000/svg"><path d="m16.941 2c-.157.0783-.337.1364-.478.2441-.273.2094-.539.4328-.783.6739-.269.2643-.546.4154-.938.4961-.941.1907-1.897.4024-2.777.7714-1.957.8234-3.2513 2.3731-4.174 4.2383-.8193 1.6582-.8327 3.4572-.7656 5.2642.1384 3.725 2.8575 6.445 4.0446 9.312h-.162c-.503 0-.507578.333-.507578.748v1.504c0 .415-.164685 1.248.338293 1.248h-.9893803c-.6037 0-1.048879.47075-1.048879 1.02375v1.47825c0 .553.445179.998 1.048879.998h9.6507073c.604 0 1.200176-.445 1.200176-.998v-1.47825c0-.553-.596176-1.02375-1.200176-1.02375h-.819384c.503 0 .398602-.833.398602-1.248v-1.504c0-.415-.0656-.748-.568599-.748h-.387591c.3-.278 1.607932-.778 1.874932-1.062.979974-1.187634.702216-3.637011.579-4.667-.417-.762-1.002-1.379-1.678-1.908-.761-.594-1.547-1.156-2.315-1.742-.219-.167-.646026-.825737-.939026-1.088737.724.153 1.533026.809737 2.115026.838737 1.005.05 1.873.384 2.678.969.311.226.671.406 1.035.531.473.163.71.047.992-.381.074-.112.119-.242.19-.39.56.007.867-.317 1.021-.834.053-.177.142-.342.207-.514.434998-1.154.210998-2.175-.623002-3.0645-.187-.2039-.408-.373-.603-.5684-.651-.6496-1.304-1.2957-1.938-1.9609-.46-.4838-.875-1.0103-1.34-1.4902-.23-.2365-.424-.472-.531-.7891-.161-.4752-.465-.8406-.906-1.0879-.157-.0876-.479691-.2582374-.592691-.3311374-.182-.5302-.049023-1.1264626-.308309-1.4598626z" fill="#4d4d4d" transform="matrix(.58824699 0 0 .5714285 -1.11801734 -1.14285694)"/></svg>

<?xml version="1.0" encoding="UTF-8" standalone="no"?>
<!-- Generator: Adobe Illustrator 16.0.0, SVG Export Plug-In . SVG Version: 6.00 Build 0)  -->

<svg
   xmlns:dc="http://purl.org/dc/elements/1.1/"
   xmlns:cc="http://creativecommons.org/ns#"
   xmlns:rdf="http://www.w3.org/1999/02/22-rdf-syntax-ns#"
   xmlns:svg="http://www.w3.org/2000/svg"
   xmlns="http://www.w3.org/2000/svg"
   xmlns:sodipodi="http://sodipodi.sourceforge.net/DTD/sodipodi-0.dtd"
   xmlns:inkscape="http://www.inkscape.org/namespaces/inkscape"
   id="Capa_1"
   xml:space="preserve"
   height="16"
   viewBox="0 0 15.999999 15.999999"
   width="16"
   version="1.1"
   y="0px"
   x="0px"
   inkscape:version="0.91 r13725"
   sodipodi:docname="chess.svg"><defs
     id="defs17" /><sodipodi:namedview
     pagecolor="#ffffff"
     bordercolor="#666666"
     borderopacity="1"
     objecttolerance="10"
     gridtolerance="10"
     guidetolerance="10"
     inkscape:pageopacity="0"
     inkscape:pageshadow="2"
     inkscape:window-width="1600"
     inkscape:window-height="847"
     id="namedview15"
     showgrid="false"
     inkscape:zoom="1"
     inkscape:cx="9.7773195"
     inkscape:cy="7.8624349"
     inkscape:window-x="0"
     inkscape:window-y="0"
     inkscape:window-maximized="1"
     inkscape:current-layer="Capa_1"><inkscape:grid
       type="xygrid"
       id="grid4145" /></sodipodi:namedview><metadata
     id="metadata43"><rdf:RDF><cc:Work
         rdf:about=""><dc:format>image/svg+xml</dc:format><dc:type
           rdf:resource="http://purl.org/dc/dcmitype/StillImage" /><dc:title></dc:title></cc:Work></rdf:RDF></metadata><g
     id="g3"
     transform="matrix(0.45378924,0,0,0.44300217,-0.21311622,5.9163796e-8)"
     style="fill:#4d4d4d"><g
       id="g5"
       style="fill:#4d4d4d"><path
         id="path7"
         d="M 16.941,2 C 16.784,2.0783 16.604,2.1364 16.463,2.2441 16.19,2.4535 15.924,2.6769 15.68,2.918 15.411,3.1823 15.134,3.3334 14.742,3.4141 13.801,3.6048 12.845,3.8165 11.965,4.1855 10.008,5.0089 8.7137,6.5586 7.791,8.4238 6.9717,10.082 6.9583,11.881 7.0254,13.688 7.1638,17.413 9.8829,20.133 11.07,23 l -0.162,0 c -0.503,0 -0.507578,0.333 -0.507578,0.748 l 0,1.504 c 0,0.415 -0.164685,1.248 0.338293,1.248 l -0.9893803,0 c -0.6037,0 -1.048879,0.47075 -1.048879,1.02375 l 0,1.47825 c 0,0.553 0.445179,0.998 1.048879,0.998 l 9.6507073,0 c 0.604,0 1.200176,-0.445 1.200176,-0.998 l 0,-1.47825 c 0,-0.553 -0.596176,-1.02375 -1.200176,-1.02375 l -0.819384,0 c 0.503,0 0.398602,-0.833 0.398602,-1.248 l 0,-1.504 c 0,-0.415 -0.0656,-0.748 -0.568599,-0.748 l -0.387591,0 c 0.3,-0.278 1.607932,-0.778 1.874932,-1.062 0.979974,-1.187634 0.702216,-3.637011 0.579,-4.667 -0.417,-0.762 -1.002,-1.379 -1.678,-1.908 -0.761,-0.594 -1.547,-1.156 -2.315,-1.742 -0.219,-0.167 -0.646026,-0.825737 -0.939026,-1.088737 0.724,0.153 1.533026,0.809737 2.115026,0.838737 1.005,0.05 1.873,0.384 2.678,0.969 0.311,0.226 0.671,0.406 1.035,0.531 0.473,0.163 0.71,0.047 0.992,-0.381 0.074,-0.112 0.119,-0.242 0.19,-0.39 0.56,0.007 0.867,-0.317 1.021,-0.834 0.053,-0.177 0.142,-0.342 0.207,-0.514 C 24.218,11.598 23.994,10.577 23.16,9.6875 22.973,9.4836 22.752,9.3145 22.557,9.1191 21.906,8.4695 21.253,7.8234 20.619,7.1582 20.159,6.6744 19.744,6.1479 19.279,5.668 19.049,5.4315 18.855,5.196 18.748,4.8789 18.587,4.4037 18.283,4.0383 17.842,3.791 17.685,3.7034 17.362309,3.5327626 17.249309,3.4598626 17.067309,2.9296626 17.200286,2.3334 16.941,2 Z"
         transform="matrix(1.2963,0,0,1.2899,-1.9941,-2.5798)"
         inkscape:connector-curvature="0"
         style="fill:#4d4d4d"
         sodipodi:nodetypes="ccccccccssscsssssssscsssccccccccccccccccccccc" /></g></g><g
     id="g4171"
     transform="matrix(0.77144,0,0,0.77526,1.5383,-12.999998)"
     style="fill:#ffffff" /><g
     id="g4184"
     transform="matrix(0.77144,0,0,0.77526,1.5383,-14.999998)"
     style="fill:#333333" /></svg>
